X:34
T:Squirrel Leap
C:Chris Perry
S:Fiddle Player's Tunebook 1
M:4/4
L:1/8
K:G
cB |
"Am"A a2 g a2 ef |"C"gage "G"d2 B2 |"C"c2 ec "G"BcdB |"Am"cBAc "Em"BAGB|
"Am"A a2 g a2 ef |"C"gage "G"d2 B2 |"C"cdef gagG |"G"BA G2 "Am"A2 :: cd|
"Am"e=fed cB A2 |"Am"e=fed cB A2 |"G"d3 B "Em"G2 AB |
"C"c4  "D"d4 |
"Am"ABcA "G"BAGB |"Am"ABcd e2 g2 |"Am"agec "G"dBGB |"Am"A2 AB "Am"A2 :|

